dist/icons/svgs/star-stroke-outline.svg

<svg xmlns="http://www.w3.org/2000/svg" width="24" height="24" fill="currentcolor" class="icon-star-stroke-outline" viewBox="0 0 24 24">
  <path d="M12.4609 2C12.8516 2 13.1641 2.23438 13.3203 2.54688L16.0156 8.05469L21.9922 8.95312C22.3438 8.99219 22.6172 9.22656 22.7344 9.57812C22.8516 9.92969 22.7734 10.2812 22.5 10.5547L18.1641 14.8516L19.1797 20.9062C19.2578 21.2578 19.1016 21.6484 18.8281 21.8438C18.5156 22.0391 18.125 22.0781 17.8125 21.9219L12.4609 19.0312L7.14844 21.9219C6.79688 22.0781 6.44531 22.0391 6.13281 21.8438C5.85938 21.6094 5.70312 21.2578 5.78125 20.9062L6.79688 14.8516L2.46094 10.5547C2.1875 10.2812 2.10938 9.92969 2.22656 9.57812C2.34375 9.26562 2.61719 8.99219 2.96875 8.95312L8.94531 8.05469L11.6406 2.54688C11.7969 2.23438 12.1094 2 12.4609 2ZM12.4609 5.08594L10.4297 9.34375C10.2734 9.61719 10.0391 9.8125 9.72656 9.85156L5.11719 10.5156L8.4375 13.8359C8.67188 14.0703 8.78906 14.3828 8.71094 14.6562L7.92969 19.3438L12.0312 17.1562C12.3047 17 12.6562 17 12.9297 17.1562L17.0312 19.3438L16.25 14.6953C16.1719 14.3828 16.2891 14.0703 16.5234 13.875L19.8438 10.5156L15.2344 9.85156C14.9219 9.8125 14.6875 9.61719 14.5312 9.34375L12.4609 5.08594Z"/>
</svg>

<svg xmlns="http://www.w3.org/2000/svg" width="24" height="24" fill="currentColor" class="icon-star-stroke-outline" viewBox="0 0 24 24">
  <path d="M12.46 2a.96.96 0 0 1 .86.547l2.696 5.508 5.976.898c.352.04.625.274.742.625a.92.92 0 0 1-.234.977l-4.336 4.297 1.016 6.054a.94.94 0 0 1-.352.938c-.312.195-.703.234-1.015.078l-5.352-2.89-5.313 2.89a1.05 1.05 0 0 1-1.015-.078c-.274-.235-.43-.586-.352-.938l1.016-6.054-4.336-4.297a.92.92 0 0 1-.234-.977c.117-.312.39-.586.742-.625l5.976-.898 2.696-5.508c.156-.313.468-.547.82-.547m0 3.086-2.03 4.258c-.157.273-.39.469-.703.508l-4.61.664 3.32 3.32c.235.234.352.547.274.82l-.781 4.688 4.101-2.188a.92.92 0 0 1 .899 0l4.101 2.188-.781-4.649a.81.81 0 0 1 .273-.82l3.32-3.36-4.609-.663c-.312-.04-.546-.235-.703-.508z"/>
</svg>
